!!!!SEGMENT: pl-wn--sd-xvi-qu-273--121_gomolka-mikolaj--czlowiek-ja-nieszczesliwy-czlowiek-strapiony.krn
!!!cenid: 15xx:326
!!!COM: Gomółka, Mikołaj
!!!COM-rismid: pe30013343
!!!CDT: ~1535->1591/04/30
!!!CNT: Polish
!!!GTL: Melodiae na psalterz polski
!!!OTL: CXXI. Człowiek ja nieszczęśliwy, człowiek strapiony,
!!!ONB: PSALM CXXI. Levavi oculos meos in montes: unde veniet auxilium mihi, Auxilium meum à domino:
!!!PDT: 1580
!!!AGN: Sacred
!!!SMS-siglum: PL-Wn
!!!SMS-shelfmark: SD XVI.Qu.273
!!!SMS-shelfwork: 121 G
!!!NIFC-rismid:
!!!ONB-nifc: Melodiae na psalterz polski
**kern	**text	**kern	**text	**kern	**text	**kern	**text
*part4	*part4	*part3	*part3	*part2	*part2	*part1	*part1
*staff4	*staff4	*staff3	*staff3	*staff2	*staff2	*staff1	*staff1
*clefF4	*	*clefC3	*	*clefC3	*	*clefC1	*
*k[]	*	*k[]	*	*k[]	*	*k[]	*
*A:	*	*A:	*	*A:	*	*A:	*
*M2/1	*	*M2/1	*	*M2/1	*	*M2/1	*
*met(C|)	*	*met(C|)	*	*met(C|)	*	*met(C|)	*
*I"BASSUS.	*	*I"TENOR.	*	*I"ALTUS.	*	*I"CANTUS.	*
=1-	=1	=1-	=1	=1-	=1	=1-	=1
1AA/	CƷło-	1A/	CƷło-	1c#X\	CƷło-	1e/	CƷło-
2AA/	-wiek	2A/	-wiek	2e\	-wiek	2cc\	-wiek
1F\	ia	1c\	ia	1f\	ia	1a\	ia
=2-	=2	=2-	=2	=2-	=2	=2-	=2
.	.	.	.	.	.	.	.
2D/	nie-	2F/	nie-	2f\	nie-	2a\	nie-
2C#X/	-ſʒcʒę-	2A/	-ſʒcʒę-	2e\	-ſʒcʒę-	2e/	-ſʒcʒę-
2D/	-śli-	2A/	-śli-	2d\	-śli-	2f/	-śli-
=3-	=3	=3-	=3	=3-	=3	=3-	=3
2AA/	-wy	2A/	-wy	2c#X/	-wy	2e/	-wy
2A\	cʒło-	2c/	cʒło-	2a\	cʒło-	2cc\	cʒło-
1F\	-wiek	2.f\	-wiek	1a\	-wiek	1cc\	-wiek
.	.	4e\	.	.	.	.	.
=4-	=4	=4-	=4	=4-	=4	=4-	=4
1G\	ſtra-	4d\	ſtra-	2.g\	ſtra-	1b-X\	ſtra-
.	.	4c\	.	.	.	.	.
.	.	2d\	.	.	.	.	.
.	.	.	.	4f\	.	.	.
1A\	-pio-	1c#X\	-pio-	1e\	-pio-	1a\	-pio-
=5-	=5	=5-	=5	=5-	=5	=5-	=5
2D/	-ny,	2d\	-ny,	2f#X\	-ny,	2a\	-ny,
2D/	O-	2f\	O-	2d\	O-	1a\	O-
2C#X/	-cʒy	2e\	-cʒy	2e\	-cʒy	.	.
2D/	ſmu-	2d\	ſmu-	1f#\	ſmu-	2.a\	-cʒy
=6-	=6	=6-	=6	=6-	=6	=6-	=6
2D/	-tné	2d\	-tné	.	.	.	.
.	.	.	.	.	.	4bny\	ſmu-
2E\	.	2B/	.	2g\	-tné	2cc\	-tné
!!LO:PB:g=original
2F\	po-	2A/	po-	2a\	po-	1.dd\	po-
2G\	-dno-	2d\	-dno-	4g\	-dno-	.	.
.	.	.	.	4fny\	-ſʒę	.	.
=7-	=7	=7-	=7	=7-	=7	=7-	=7
1B\	-ſʒę	1d\	-ſʒę	4g\	ná	.	.
.	.	.	.	2a\	wſʒyſt-	.	.
.	.	.	.	.	.	4cc#X\	-dno-
.	.	.	.	4g\	.	4b\	-ſʒę
!	!	!	!	!	!	!LO:SIC:s=2cc#:v	!
2A\	ná	2e\	ná	2a\	-ki	2ccny\	ná
2D/	wſʒyſt-	2d\	wſʒyſt-	2.f\	ſtro-	2a\	wſʒyſt-
=8-	=8	=8-	=8	=8-	=8	=8-	=8
2.F\	-ki	4cny/	-ki	.	.	2a\	-ki
.	.	4B/	.	4e\	.	.	.
.	.	4A/	ſtro-	4d\	-ny:	2a\	ſtro-
4E\	.	4G/	.	4cny\	.	.	.
4D/	ſtro-	1A/	-ny:	1d\	U-	1f/	-ny:
4Cny/	.	.	.	.	.	.	.
2D/	-ny:	.	.	.	.	.	.
=9-	=9	=9-	=9	=9-	=9	=9-	=9
2AA/	U-	2A/	U-	2c#X/	-pá-	2e/	U-
2A\	-pá-	2c/	-pá-	2e\	-tru-	2a\	-pá-
2F\	-tru-	2A/	-tru-	2a\	-iąc,	2dd\	-tru-
2G\	-iąc,	2B/	-iąc,	4g\	kto-	2dd\	-iąc,
.	.	.	.	4f\	.	.	.
=10-	=10	=10-	=10	=10-	=10	=10-	=10
2A\	kto-	2c#X/	kto-	2e\	.	2cc#X\	kto-
2D/	-li	2d\	-li	2f\	-li	2a\	-li
2D/	ſye	2A/	ſye	2d\	ſye	2f/	ſye
2BB/	mnie	2B/	mnie	2d\	mnie	2g/	mnie
=11-	=11	=11-	=11	=11-	=11	=11-	=11
2AA/	u-	2c#X/	u-	4e\	u-	2a\	u-
.	.	.	.	4f\	.	.	.
2GG/	-ʒ̇á-	2d\	-ʒ̇á-	2g\	-ʒ̇á-	2b-X\	-ʒ̇á-
2.E-X\	-łu-	2.G/	-łu-	2.cny/	-łu-	2g/	-łu-
.	.	.	.	.	.	2g/	-ie,
4E-\	-ie,	4G/	-ie,	4c/	-ie,	.	.
=12-	=12	=12-	=12	=12-	=12	=12-	=12
!!LO:PB:g=original
2D/	Kto	2A/	Kto-	2d\	Kto-	2f#X/	Kto-
2D/	-li	2d\	-li	2f\	-li	2a\	-li
2D/	mię	2d\	mię	2f\	mię	2a\	mię
2D/	w ʒłéy	2d\	w ʒłéy	2f\	w ʒłéy	2a\	w ʒłéy
=13-	=13	=13-	=13	=13-	=13	=13-	=13
2AA/	prʒy-	2cny/	prʒy-	2e\	prʒy-	2ccny\	prʒy-
1A\	-go-	2A/	-go-	2e\	-go-	2cc\	-go-
.	.	2B/	-dʒ́ié	2.e\	-dʒ́ié	1bny\	-dʒ́ié
2G\	-dʒ́ié	2.e\	mo-	.	.	.	.
.	.	.	.	4d\	.	.	.
=14-	=14	=14-	=14	=14-	=14	=14-	=14
2A\	mo-	.	.	2c#X/	mo-	2a\	mo-
.	.	4d\	.	.	.	.	.
2AA/	.	2c/	.	2A/	.	2e/	.
2GG/	-iéy	2B/	-iéy	2d\	-iéy	2g/	-iéy
2GG/	rá-	2B/	rá-	2d\	rá-	2g/	rá-
=15-	=15	=15-	=15	=15-	=15	=15-	=15
1D\	-tu-	1A/	-tu-	1d\	-tu-	1fny/	-tu-
*	*	*000/left	*	*	*	*000/left	*
000AA/	-ie.	000A/	-ie.	000c#X\	-ie.	000e/	-ie.
==	==	==	==	==	==	==	==
*-	*-	*-	*-	*-	*-	*-	*-
!!!RDF**kern: l = terminal long
!!!system-decoration: s1,s2,s3,s4
!!!ENC: Marta Lawrence
!!!END: 2020-02-19
!!!URL-scan: https://polona.pl/item/melodiae-na-psalterz-polski,Nzk3MTM4ODQ/282 Scan on Polona
!!!IIIF: https://polona.pl/iiif/item/Nzk3MTM4ODQ/manifest.json
